src/images/search-icon.svg

<svg width="34" height="34" fill="none" xmlns="http://www.w3.org/2000/svg"><rect x=".5" y=".5" width="33" height="33" rx="16.5" stroke="#424242"/><path fill-rule="evenodd" clip-rule="evenodd" d="M18.7929 18.2638c-1.4319 1.4319-3.7535 1.4319-5.1854 0-1.432-1.4319-1.432-3.7535 0-5.1855 1.4319-1.4319 3.7535-1.4319 5.1854 0 1.4319 1.432 1.4319 3.7536 0 5.1855zm.4404 1.383c-1.9602 1.4994-4.7758 1.3526-6.5686-.4402-1.9527-1.9526-1.9527-5.1184 0-7.0711 1.9526-1.9526 5.1184-1.9526 7.071 0 1.7928 1.7928 1.9396 4.6082.4404 6.5684l3.5667 3.5667-.9428.9428-3.5667-3.5666z" fill="#fff"/></svg>

<svg width="34" height="34" viewBox="0 0 34 34" fill="none" xmlns="http://www.w3.org/2000/svg">
<rect x="0.5" y="0.5" width="33" height="33" rx="16.5" stroke="#424242"/>
<path fill-rule="evenodd" clip-rule="evenodd" d="M18.7929 18.2638C17.361 19.6957 15.0394 19.6957 13.6075 18.2638C12.1755 16.8319 12.1755 14.5103 13.6075 13.0783C15.0394 11.6464 17.361 11.6464 18.7929 13.0783C20.2248 14.5103 20.2248 16.8319 18.7929 18.2638ZM19.2333 19.6468C17.2731 21.1462 14.4575 20.9994 12.6647 19.2066C10.712 17.254 10.712 14.0882 12.6647 12.1355C14.6173 10.1829 17.7831 10.1829 19.7357 12.1355C21.5285 13.9283 21.6753 16.7437 20.1761 18.7039L23.7428 22.2706L22.8 23.2134L19.2333 19.6468Z" fill="white"/>
</svg>
